X: 36871
T: Shirley's
R: reel
M: 4/4
K: Amajor
|:AB|c2 Bc BA A2|Acea fe e2|faaf e2ce|afec BAAB|
c2 Bc BA A2|Acea fe e2|faaf e2cA|BABc A2:|
|:cd|e2 ef ecBA|dfaf edcd|e2 ef edc2|decd B2 cd|
e2 ef ecBA|dfaf edc2|d2 fd c2ec|BABc A2:|

